X:13
T:O'Sullivan's March
T:A Rock And A Wee Pickle Tow
T:Burnt Old Man, The
T:Captain Collins
T:Lilliburlero
T:March Of The O'Sullivans
T:March Of The O'Sullivans, The
T:O’Sullivan’s March
T:Old Hag Tossed Up In A Blanket, The
T:Rock And The Wee Pickle Tow, The
T:Rock And Wee Pickle Tow
T:Wee Pickle Tow, The
M:6/8
L:1/8
R:jig
K:Gmaj
D |: GBA ABd | edB A2 G | GBA ~B3 |1 AGG G2 D :|2  AGG G2 g ||
|: e2 g e2 g |  ege edB | ded dBd | deB {d}BAG |
cBc dcd | e/f/gB A2 G | GBA ~B3 |1 AGG G2 g :|2 AGG G2 D ||
|: GAB dBA | GAB ~B3 | GAB edB | dBA A2 B |
GAB dBA | BAB ~g3 | fed edB |1 dBA A2 D :|2 dBA A2 B ||
|: dBB gBB | dBB d2 e | dBB gfg | edB A2 B/A/ |
GAB dBA | BAB ~g3 | fed edB | dBA A2 B :|
W:Variation from radriano
K:G
DBA B2d|edB AGF|GBA B3|AGE EGE|
DBA B2d|edB AGF|GBA B3|AGF G3:|
e2g edg|edg ed^c|d3 dge|dge dBG|
cEc dFd|gdB AGF|GBA B3|AGF G3:|

